X:13
T:Jenny's Welcome To Charlie
R:Reel
S:? Sean Keane, Dublin (fiddle)
D:From a tape of Donegal fiddlers
H:Followed by 'The Connaught Heifers'
H:A fairly restrained (for SK) version
M:4/4
N:As played
Z:Bernie Stocks
K:C
|: [D3D3]B AGED | Ec~c2 dEcE | (3.D.D.DBG AGED | ~E2cE {G}EDCE |
D3B AGED | Ec~c2 dEcd | (3.e.d.c dc AGEG |1 {A}GEcE {G}EFGE :|2 {A}GEcE EDD2 ||
|: f3f efed | cA(3.A.A.A cAGe | fedf ed(3.B.c.d | ea{b}ag edde |
e{a}(3feff efed | cA(3.A.A.A G2cd | (3.e.d.c dc AGEG | {A}GEcE {G}EDD2 :|
ea~a2 {b}age^f | ~g3a gedg | ea~a2 {b}aged | ea{b}ag ed (3Bcd |
ea~a2 {b}age^f | ~g3a gedB | G2(3.B.c.d ecdc |1 ~A2GE {G}EDDg :|2 ~A2GE {G}EDD2 ||
|: Ad~d2 defd | Ac~c2 {d}cAGc | Ad~d2 (3.d.e.d cd | ea{b}ag ed{e}dc |
~d3d {e}dcAB | ~c3d cAGE | D2(3.E.F.G Ad{e}dc |1 (3.A.c.A Gc EFGc :|2 (3.A.c.A Gc EFGE ||
<end>
<start>
